!!!COM: Haydn, Franz Joseph
!!!OPR: London Symphonies
!!!OTL: Symphonie Nr. 99
!!!XEN: Symphony No. 99 in E-flat major
!!!OMV: Movement 3.
!!!YEC: Copyright 1996, Center for Computer Assisted Research in the Humanities
!!!YEM: Rights to all derivative electronic formats reserved.
!!!YEM: Refer to licensing agreement for further details.
!! Menuetto and Trio
!!
!! Allegretto
!! Minuetto.
**kern	**kern	**kern	**kern	**kern	**kern	**kern	**kern	**kern	**kern	**kern	**kern	**kern	**kern	**kern	**kern	**kern	**kern
!Basso	!Violoncello	!Viola	!Violino II	!Violino I	!Timpani in Eb, Bb	!Tromba 2 in Eb	!Tromba 1 in Eb	!Corno 2 in Eb	!Corno 1 in Eb	!Fagotto 2	!Fagotto 1	!Clarinetto 2 in Bb	!Clarinetto 1 in Bb	!Oboe 2	!Oboe 1	!Flauto 2	!Flauto 1
*Icbass	*Icello	*Iviola	*Ivioln	*Ivioln	*Itimpa	*Itromp	*Itromp	*Icor	*Icor	*Ifagot	*Ifagot	*Iclars	*Iclars	*Ioboe	*Ioboe	*Iflt	*Iflt
*ICstr	*ICstr	*ICstr	*ICstr	*ICstr	*ICidio	*ICbras	*ICbras	*ICbras	*ICbras	*ICww	*ICww	*ICww	*ICww	*ICww	*ICww	*ICww	*ICww
*clefF4	*clefF4	*clefC3	*clefG2	*clefG2	*clefF4	*clefG2	*clefG2	*clefG2	*clefG2	*clefF4	*clefF4	*clefG2	*clefG2	*clefG2	*clefG2	*clefG2	*clefG2
*k[b-e-a-]	*k[b-e-a-]	*k[b-e-a-]	*k[b-e-a-]	*k[b-e-a-]	*k[b-e-a-]	*k[]	*k[]	*k[]	*k[]	*k[b-e-a-]	*k[b-e-a-]	*k[b-]	*k[b-]	*k[b-e-a-]	*k[b-e-a-]	*k[b-e-a-]	*k[b-e-a-]
*M3/4	*M3/4	*M3/4	*M3/4	*M3/4	*M3/4	*M3/4	*M3/4	*M3/4	*M3/4	*M3/4	*M3/4	*M3/4	*M3/4	*M3/4	*M3/4	*M3/4	*M3/4
*>[A,A,B,B,C,D,D,E,E,F]	*>[A,A,B,B,C,D,D,E,E,F]	*>[A,A,B,B,C,D,D,E,E,F]	*>[A,A,B,B,C,D,D,E,E,F]	*>[A,A,B,B,C,D,D,E,E,F]	*>[A,A,B,B,C,D,D,E,E,F]	*>[A,A,B,B,C,D,D,E,E,F]	*>[A,A,B,B,C,D,D,E,E,F]	*>[A,A,B,B,C,D,D,E,E,F]	*>[A,A,B,B,C,D,D,E,E,F]	*>[A,A,B,B,C,D,D,E,E,F]	*>[A,A,B,B,C,D,D,E,E,F]	*>[A,A,B,B,C,D,D,E,E,F]	*>[A,A,B,B,C,D,D,E,E,F]	*>[A,A,B,B,C,D,D,E,E,F]	*>[A,A,B,B,C,D,D,E,E,F]	*>[A,A,B,B,C,D,D,E,E,F]	*>[A,A,B,B,C,D,D,E,E,F]
*>A	*>A	*>A	*>A	*>A	*>A	*>A	*>A	*>A	*>A	*>A	*>A	*>A	*>A	*>A	*>A	*>A	*>A
4r	4r	4b-'\	4bb-'\	4bb-'\	4r	4r	4r	4r	4r	4r	4r	4b-'\	4bb-'\	4r	4r	4r	4r
=1	=1	=1	=1	=1	=1	=1	=1	=1	=1	=1	=1	=1	=1	=1	=1	=1	=1
2.r	2.r	4g'\	4gg'\	4gg'\	2.r	2.r	2.r	2.r	2.r	2.r	2.r	4g'/	4gg'\	2.r	2.r	2.r	2.r
.	.	4e-'\	4ee-'\	4ee-'\	.	.	.	.	.	.	.	4e-'/	4ee-'\	.	.	.	.
.	.	4B-'/	4b-'\	4b-'\	.	.	.	.	.	.	.	4B-'/	4b-'\	.	.	.	.
=2	=2	=2	=2	=2	=2	=2	=2	=2	=2	=2	=2	=2	=2	=2	=2	=2	=2
4r	4r	4G'/	4g'/	4g'/	4r	4r	4r	4r	4r	4r	4r	4G'/	4g'/	4r	4r	4r	4r
4r	4r	4r	4r	4r	4r	4r	4r	4r	4r	4r	4r	4r	4r	4r	4r	4r	4r
4G'\	4G'\	4B-'/	4e-'/	4e-'/	4E-'\	4e-'/	4ee-'\	4E-'/	4e-'\	4B-'\	4B-'\	4r	4r	4ee-'\	4ee-'\	4eee-'\	4eee-'\
=3	=3	=3	=3	=3	=3	=3	=3	=3	=3	=3	=3	=3	=3	=3	=3	=3	=3
4F'\	4F'\	4A-'/	4d'/	4d'/	4BB-'/	4B-'/	4b-'/	4BB-'/	4B-'/	4A-'\	4A-'\	2.r	2.r	4dd'\	4dd'\	4ddd'\	4ddd'\
4F'\	4F'\	4A-'/	4d'/	4d'/	4BB-'/	4B-'/	4b-'/	4BB-'/	4B-'/	4A-'\	4A-'\	.	.	4dd'\	4dd'\	4ddd'\	4ddd'\
4E-'\	4E-'\	4G'/	4c'/	4c'/	4BB-'/	4B-'/	4b-'/	4BB-'/	4B-'/	4G'\	4G'\	.	.	4cc'\	4cc'\	4ccc'\	4ccc'\
=4	=4	=4	=4	=4	=4	=4	=4	=4	=4	=4	=4	=4	=4	=4	=4	=4	=4
4D'\	4D'\	4F'/	4B-'/	4B-'/	4BB-'/	4B-'/	4b-'/	4BB-'/	4B-'/	4F'\	4F'\	4r	4r	4b-'\	4b-'\	4bb-'\	4bb-'\
4r	4r	4r	4r	4r	4r	4r	4r	4r	4r	4r	4r	4r	4r	4r	4r	4r	4r
4r	4r	4b-'\	4bb-'\	4bb-'\	4r	4r	4r	4r	4r	4r	4r	4b-'\	4bb-'\	4r	4r	4r	4r
=5	=5	=5	=5	=5	=5	=5	=5	=5	=5	=5	=5	=5	=5	=5	=5	=5	=5
2.r	2.r	4a-'\	4aa-'\	4aa-'\	2.r	2.r	2.r	2.r	2.r	2.r	2.r	4a-'\	4aa-'\	2.r	2.r	2.r	2.r
.	.	4f'\	4ff'\	4ff'\	.	.	.	.	.	.	.	4f'/	4ff'\	.	.	.	.
.	.	4d'\	4dd'\	4dd'\	.	.	.	.	.	.	.	4d'/	4dd'\	.	.	.	.
=6	=6	=6	=6	=6	=6	=6	=6	=6	=6	=6	=6	=6	=6	=6	=6	=6	=6
4r	4r	4B-'/	4b-'\	4b-'\	4r	4r	4r	4r	4r	4r	4r	4B-'/	4b-'\	4r	4r	4r	4r
4r	4r	4r	4r	4r	4r	4r	4r	4r	4r	4r	4r	4r	4r	4r	4r	4r	4r
4D'\	4D'\	4B-'/	4f'/	4a-'/	4BB-'/	4b-'/	4ff'\	4B-'/	4f'\	4f'\	4f'\	4r	4r	4b-'\	4aa-'\	4aa-'\	4aa-'\
=7	=7	=7	=7	=7	=7	=7	=7	=7	=7	=7	=7	=7	=7	=7	=7	=7	=7
4E-'\	4E-'\	4B-'/	4e-'/	4g'/	4E-'\	4ee-'\	4gg'\	4e-'\	4g'\	4e-'\	4e-'\	2.r	2.r	4b-'\	4gg'\	4gg'\	4gg'\
4E-'\	4E-'\	4e-'\	4B-'/	4g'/	4E-'\	4ee-'\	4gg'\	4e-'\	4g'\	4B-'\	4B-'\	.	.	4ee-'\	4gg'\	4gg'\	4gg'\
4BB-'/	4BB-'/	4d'\	4A-'/	4f'/	4BB-'/	4b-'/	4ff'\	4B-'/	4f'\	4A-'\	4A-'\	.	.	4dd'\	4ff'\	4ff'\	4ff'\
=8	=8	=8	=8	=8	=8	=8	=8	=8	=8	=8	=8	=8	=8	=8	=8	=8	=8
4EE-'/	4EE-/	4e-'\	4G'/	4e-'/	4E-'\	4g'/	4ee-'\	4G'/	4e-'\	4G'\	4G'\	4r	4r	4ee-'\	4ee-'\	4ee-'\	4ee-'\
4r	4r	4r	4r	4r	4r	4r	4r	4r	4r	4r	4r	4r	4r	4r	4r	4r	4r
4r	4r	4r	4r	4bb-'\	4r	4r	4r	4r	4r	4r	4r	4b-'\	4bb-'\	4r	4r	4r	4r
=9	=9	=9	=9	=9	=9	=9	=9	=9	=9	=9	=9	=9	=9	=9	=9	=9	=9
2.r	2.r	4r	4r	(4gg\	2.r	2.r	2.r	2.r	2.r	4r	4r	(4g/	(4gg\	2.r	2.r	2.r	2.r
.	.	4r	4r	4ee-\)	.	.	.	.	.	4r	4r	4e-/)	4ee-\)	.	.	.	.
.	.	4e-'\	4g'/	4cc'\	.	.	.	.	.	4e-'\	4e-'\	4g'/	4cc'\	.	.	.	.
=10	=10	=10	=10	=10	=10	=10	=10	=10	=10	=10	=10	=10	=10	=10	=10	=10	=10
2.r	2.r	(4fz\	(4a-z/	(4bz\	2.r	2.r	2.r	2.r	2.r	(4fz\	(4fz\	(4a-z\	(4bnz\	4r	4r	2.r	2.r
.	.	4e-\)	4g/)	4cc\)	.	.	.	.	.	4e-\)	4e-\)	4g/)	4cc\)	4r	4r	.	.
.	.	4r	4r	4gg'\	.	.	.	.	.	4r	4r	4r	4r	4gg'\	4gg'\	.	.
=11	=11	=11	=11	=11	=11	=11	=11	=11	=11	=11	=11	=11	=11	=11	=11	=11	=11
2.r	2.r	4r	4r	(4ee-\	2.r	2.r	2.r	2.r	2.r	4r	4r	2.r	2.r	(4ee-\	(4ee-\	2.r	2.r
.	.	4r	4r	4cc\)	.	.	.	.	.	4r	4r	.	.	4cc\)	4cc\)	.	.
.	.	4d'\	4f'/	4b-'\	.	.	.	.	.	4d'\	4d'\	.	.	4b-'\	4b-'\	.	.
=12	=12	=12	=12	=12	=12	=12	=12	=12	=12	=12	=12	=12	=12	=12	=12	=12	=12
2.r	2.r	(4e-z\	(4g-z/	(4az/	2.r	2.r	2.r	2.r	2.r	(4e-z\	(4e-z\	2.r	2.r	(4az/	(4az/	2.r	2.r
.	.	4d\)	4f/)	4b-\)	.	.	.	.	.	4d\)	4d\)	.	.	4b-\)	4b-\)	.	.
.	.	4r	4ff'\	4ff'\	.	.	.	.	.	4r	4r	.	.	4r	4r	.	.
=13	=13	=13	=13	=13	=13	=13	=13	=13	=13	=13	=13	=13	=13	=13	=13	=13	=13
4r	4r	4r	4ee-'\	4ee-'\	2.r	2.r	2.r	4r	4r	4r	4r	2.r	2.r	2.r	2.r	2.r	2.r
4E-'\	4E-'\	4e-'\	4cc'\	4cc'\	.	.	.	4e-\	4e-\	4e-'\	4e-'\	.	.	.	.	.	.
4C'/	4C'/	4c'\	4a'/	4a'/	.	.	.	4e-\	4e-\	4c'\	4c'\	.	.	.	.	.	.
=14	=14	=14	=14	=14	=14	=14	=14	=14	=14	=14	=14	=14	=14	=14	=14	=14	=14
4AA'/	4AA'/	4A'/	4ff'\	4ff'\	2.r	2.r	2.r	4r	4r	4A'\	4A'\	2.r	2.r	2.r	2.r	2.r	2.r
4F'\	4F'\	4f'\	4dd'\	4dd'\	.	.	.	4f\	4f\	4f'\	4f'\	.	.	.	.	.	.
4D'\	4D'\	4d'\	4b'\	4b'\	.	.	.	4f\	4f\	4d'\	4d'\	.	.	.	.	.	.
=15	=15	=15	=15	=15	=15	=15	=15	=15	=15	=15	=15	=15	=15	=15	=15	=15	=15
4BB'/	4BB'/	4B'/	4gg'\	4gg'\	2.r	2.r	2.r	4r	4r	4B'\	4B'\	2.r	2.r	2.r	2.r	2.r	2.r
4G'\	4G'\	4g'\	4ee-'\	4ee-'\	.	.	.	4g\	4g\	4g'\	4g'\	.	.	.	.	.	.
4E-'\	4E-'\	4e-'\	4cc'\	4cc'\	.	.	.	4g\	4g\	4e-'\	4e-'\	.	.	.	.	.	.
=16	=16	=16	=16	=16	=16	=16	=16	=16	=16	=16	=16	=16	=16	=16	=16	=16	=16
4C'/	4C'/	4c'\	(4aaz\	(4aaz\	2.r	2.r	2.r	2f\	2f\	4c'\	4c'\	2.r	2.r	2.r	2.r	2.r	2.r
4D'\	4D'\	4d'\	4bb-\)	4bb-\)	.	.	.	.	.	4d'\	4d'\	.	.	.	.	.	.
4G-'\	4G-'\	4g-'\	4b-'\	4ee'\	.	.	.	4r	4r	4G-'\	4G-'\	.	.	.	.	.	.
=17	=17	=17	=17	=17	=17	=17	=17	=17	=17	=17	=17	=17	=17	=17	=17	=17	=17
2.F\	2.F\	4f'\	4dd'\	4ff'\	2.r	2.r	2.r	2.r	2.r	2.F\	2.F\	2.r	2.r	2.r	2.r	2.r	2.r
.	.	4d'\	4d'/	4b-'\	.	.	.	.	.	.	.	.	.	.	.	.	.
.	.	4c'\	4e-'/)	4a'/	.	.	.	.	.	.	.	.	.	.	.	.	.
=18	=18	=18	=18	=18	=18	=18	=18	=18	=18	=18	=18	=18	=18	=18	=18	=18	=18
2.BB-z/	2.BB-z/	4B-'/	2.d/	2b-\	4BB-/	[2.B-/	[2.b-/	4r	4r	4BB-/	4BB-/	4r	4r	4r	4r	2.r	2.r
.	.	4f'\	.	.	4r	.	.	4B-/	4f\	4d\	4f\	4f/	4ff\	4b-\	4dd\	.	.
.	.	4d'\	.	4ff\	4r	.	.	4B-/	4f\	4d\	4f\	4f/	4ff\	4b-\	4dd\	.	.
=19	=19	=19	=19	=19	=19	=19	=19	=19	=19	=19	=19	=19	=19	=19	=19	=19	=19
2.BB-z/	2.BB-z/	4r	4c/	(8ee\L	4BB-/	4B-/]	4b-/]	4r	4r	4r	4r	[2.f/	8een\L	4r	4r	4r	4r
.	.	.	.	8ff\	.	.	.	.	.	.	.	.	8ff\	.	.	.	.
.	.	4c'\	4e-/ 4A/	8gg\	4r	4B-/	4b-/	4f\	4f\	4e-\	4f\	.	8gg\	4a/	4ee-\	4ccc\	4ccc\
.	.	.	.	8ff\	.	.	.	.	.	.	.	.	8ff\	.	.	.	.
.	.	4c'\	4e-/ 4A/	8ee-\	4r	4B-/	4b-/	4f\	4f\	4e-\	4f\	.	8ee-\	4a/	4ee-\	4ccc\	4ccc\
.	.	.	.	8cc\J)	.	.	.	.	.	.	.	.	8cc\J	.	.	.	.
=20	=20	=20	=20	=20	=20	=20	=20	=20	=20	=20	=20	=20	=20	=20	=20	=20	=20
2.BB-z/	2.BB-z/	(8B-\L	(8d/L 8B-/	2b-\	4BB-/	[2.B-/	[2.b-/	4r	4r	4r	4r	2.f_/	2b-\	4r	4r	2ddd\	2ddd\
.	.	8d\)	8f/)	.	.	.	.	.	.	.	.	.	.	.	.	.	.
.	.	(8e-\	(8g/	.	4r	.	.	4B-/	4f\	4d\	4f\	.	.	4b-\	4dd\	.	.
.	.	8d\	8f/	.	.	.	.	.	.	.	.	.	.	.	.	.	.
.	.	8c\	8e-/	4dd\	4r	.	.	4B-/	4f\	4d\	4f\	.	4dd\	4b-\	4dd\	4bb-\	4bb-\
.	.	8B-\J)	8d/J)	.	.	.	.	.	.	.	.	.	.	.	.	.	.
=21	=21	=21	=21	=21	=21	=21	=21	=21	=21	=21	=21	=21	=21	=21	=21	=21	=21
2.BB-z/	2.BB-z/	2A/	4e-/ 4c'/	(4f/	4BB-/	4B-/]	4b-/]	4r	4r	4r	4r	2.f_/	4r	4r	4r	(4ff\	(4ff\
.	.	.	4e-/ 4c'/	8g-/L	4r	4B-/	4b-/	4f\	4f\	4e-\	4f\	.	4cc\	4a/	4ee-\	8gg-\L	8gg-\L
.	.	.	.	8g/	.	.	.	.	.	.	.	.	.	.	.	8gg\	8gg\
.	.	4f\	4e-/ 4c'/	8a-/	4r	4B-/	4b-/	4f\	4f\	4e-\	4f\	.	4cc\	4a/	4ee-\	8aa-\	8aa-\
.	.	.	.	8a/J)	.	.	.	.	.	.	.	.	.	.	.	8aa\J)	8aa\J)
=22	=22	=22	=22	=22	=22	=22	=22	=22	=22	=22	=22	=22	=22	=22	=22	=22	=22
2.BB-z/	2.BB-z/	2d\	(8d/L 8B-/	2b-\	16BB-/LL	[2.B-/	[2.b-/	4r	4r	4r	4r	2.f_/	4dd\	4r	4r	2bb-\	2bb-\
.	.	.	.	.	16BB-/	.	.	.	.	.	.	.	.	.	.	.	.
.	.	.	8f/)	.	16BB-/	.	.	.	.	.	.	.	.	.	.	.	.
.	.	.	.	.	16BB-/	.	.	.	.	.	.	.	.	.	.	.	.
.	.	.	(8b-/	.	16BB-/	.	.	4B-/	4f\	4d\	4f\	.	4ff\	4b-\	4dd\	.	.
.	.	.	.	.	16BB-/	.	.	.	.	.	.	.	.	.	.	.	.
.	.	.	8f/	.	16BB-/	.	.	.	.	.	.	.	.	.	.	.	.
.	.	.	.	.	16BB-/	.	.	.	.	.	.	.	.	.	.	.	.
.	.	4r	8e-/	4ff\	16BB-/	.	.	4B-/	4f\	4d\	4f\	.	4ff\	4b-\	4dd\	4r	4r
.	.	.	.	.	16BB-/	.	.	.	.	.	.	.	.	.	.	.	.
.	.	.	8d/J)	.	16BB-/	.	.	.	.	.	.	.	.	.	.	.	.
.	.	.	.	.	16BB-/JJ	.	.	.	.	.	.	.	.	.	.	.	.
=23	=23	=23	=23	=23	=23	=23	=23	=23	=23	=23	=23	=23	=23	=23	=23	=23	=23
2.BB-z/	2.BB-z/	4A/	4c/	(8ee\L	16BB-/LL	4B-/]	4b-/]	4r	4r	4r	4r	2.f_/	8een\L	4r	4r	4r	4r
.	.	.	.	.	16BB-/	.	.	.	.	.	.	.	.	.	.	.	.
.	.	.	.	8ff\	16BB-/	.	.	.	.	.	.	.	8ff\	.	.	.	.
.	.	.	.	.	16BB-/	.	.	.	.	.	.	.	.	.	.	.	.
.	.	4F/	4e-/ 4A'/	8gg\	16BB-/	4B-/	4b-/	4f\	4f\	4e-\	4f\	.	8gg\	4a/	4ee-\	4ccc\	4ccc\
.	.	.	.	.	16BB-/	.	.	.	.	.	.	.	.	.	.	.	.
.	.	.	.	8ff\	16BB-/	.	.	.	.	.	.	.	8ff\	.	.	.	.
.	.	.	.	.	16BB-/	.	.	.	.	.	.	.	.	.	.	.	.
.	.	4f\	4e-/ 4A'/	8ee-\	16BB-/	4B-/	4b-/	4f\	4f\	4e-\	4f\	.	8ee-\	4a/	4ee-\	4ccc\	4ccc\
.	.	.	.	.	16BB-/	.	.	.	.	.	.	.	.	.	.	.	.
.	.	.	.	8cc\J)	16BB-/	.	.	.	.	.	.	.	8cc\J	.	.	.	.
.	.	.	.	.	16BB-/JJ	.	.	.	.	.	.	.	.	.	.	.	.
=24	=24	=24	=24	=24	=24	=24	=24	=24	=24	=24	=24	=24	=24	=24	=24	=24	=24
2.BB-z/	2.BB-z/	4f\)	(8d/L	2b-\	16BB-/LL	[2.B-/	[2.b-/	4r	4r	4r	4r	2.f/]	2b-\	4r	4r	2ddd\	2ddd\
.	.	.	.	.	16BB-/	.	.	.	.	.	.	.	.	.	.	.	.
.	.	.	8f/	.	16BB-/	.	.	.	.	.	.	.	.	.	.	.	.
.	.	.	.	.	16BB-/	.	.	.	.	.	.	.	.	.	.	.	.
.	.	(8d\L	8b-/	.	16BB-/	.	.	4B-/	4f\	4d\	4f\	.	.	4b-\	4dd\	.	.
.	.	.	.	.	16BB-/	.	.	.	.	.	.	.	.	.	.	.	.
.	.	8e-\	8cc/	.	16BB-/	.	.	.	.	.	.	.	.	.	.	.	.
.	.	.	.	.	16BB-/	.	.	.	.	.	.	.	.	.	.	.	.
.	.	8f\	8dd/	4bb-\	16BB-/	.	.	4B-/	4f\	4d\	4f\	.	4dd\	4b-\	4dd\	4bb-\	4bb-\
.	.	.	.	.	16BB-/	.	.	.	.	.	.	.	.	.	.	.	.
.	.	8d\J)	8b-/J)	.	16BB-/	.	.	.	.	.	.	.	.	.	.	.	.
.	.	.	.	.	16BB-/JJ	.	.	.	.	.	.	.	.	.	.	.	.
=25	=25	=25	=25	=25	=25	=25	=25	=25	=25	=25	=25	=25	=25	=25	=25	=25	=25
4BB-z/	4BB-z/	4c\	4ee-\	(8aa\L	16BB-/LL	4B-/]	4b-/]	4r	4r	4r	4r	4r	4r	4r	4r	(8aa\L	(8aa\L
.	.	.	.	.	16BB-/	.	.	.	.	.	.	.	.	.	.	.	.
.	.	.	.	8bb-\	16BB-/	.	.	.	.	.	.	.	.	.	.	8bb-\	8bb-\
.	.	.	.	.	16BB-/	.	.	.	.	.	.	.	.	.	.	.	.
4BB-/	4BB-/	4A/	4e-/ 4c/	8ccc\	16BB-/	4B-/	4b-/	4f\	4f\	4e-\	4f\	4a\	4ee-\	4cc\	4aa\	8ccc\	8ccc\
.	.	.	.	.	16BB-/	.	.	.	.	.	.	.	.	.	.	.	.
.	.	.	.	8ff\	16BB-/	.	.	.	.	.	.	.	.	.	.	8ff\	8ff\
.	.	.	.	.	16BB-/	.	.	.	.	.	.	.	.	.	.	.	.
4BB-/	4BB-/	4f\	4e-/ 4c/	8gg\	16BB-/	4B-/	4b-/	4f\	4f\	4e-\	4f\	4a\	4ee-\	4cc\	4aa\	8gg\	8gg\
.	.	.	.	.	16BB-/	.	.	.	.	.	.	.	.	.	.	.	.
.	.	.	.	8aa\J)	16BB-/	.	.	.	.	.	.	.	.	.	.	8aa\J)	8aa\J)
.	.	.	.	.	16BB-/JJ	.	.	.	.	.	.	.	.	.	.	.	.
=26	=26	=26	=26	=26	=26	=26	=26	=26	=26	=26	=26	=26	=26	=26	=26	=26	=26
4BB-/	4BB-/	4B-/	4d/ 4B-/	4bb-\	4BB-/	4B-/	4b-/	4B-/	4f\	4d\	4f\	4b-\	4dd\	4dd\	4bb-\	4bb-\	4bb-\
4r	4r	4r	4r	4r	4r	4r	4r	4r	4r	4r	4r	4r	4r	4r	4r	4r	4r
=:||:@	=:||:@	=:||:@	=:||:@	=:||:@	=:||:@	=:||:@	=:||:@	=:||:@	=:||:@	=:||:@	=:||:@	=:||:@	=:||:@	=:||:@	=:||:@	=:||:@	=:||:@
*>B	*>B	*>B	*>B	*>B	*>B	*>B	*>B	*>B	*>B	*>B	*>B	*>B	*>B	*>B	*>B	*>B	*>B
4r	4BB-'/	4B-'/	4B-'/	4B-'/	4r	4r	4r	4r	4r	4r	4r	4r	4r	4r	4r	4r	4r
=27	=27	=27	=27	=27	=27	=27	=27	=27	=27	=27	=27	=27	=27	=27	=27	=27	=27
2.r	4D'\	4d'\	4d'/	4d'/	2.r	2.r	2.r	2.r	2.r	2.r	2.r	2.r	2.r	2.r	2.r	2.r	2.r
.	4F'\	4f'\	4f'/	4f'/	.	.	.	.	.	.	.	.	.	.	.	.	.
.	4A-'\	4a-'\	4a-'/	4a-'/	.	.	.	.	.	.	.	.	.	.	.	.	.
=28	=28	=28	=28	=28	=28	=28	=28	=28	=28	=28	=28	=28	=28	=28	=28	=28	=28
2.r	2.c-\	2.cc-\	(2cc-\	(2cc-\	2.r	2.r	2.r	2.r	2.r	2.r	2.r	2.r	2.r	2.r	2.r	2.r	2.r
.	.	.	4a-/)	4a-/)	.	.	.	.	.	.	.	.	.	.	.	.	.
=29	=29	=29	=29	=29	=29	=29	=29	=29	=29	=29	=29	=29	=29	=29	=29	=29	=29
[2.D-\	[2.D-\	(2.A-/	(2.c-/	4f'/	2.r	2.r	2.r	2.r	2.r	[2.D-\	[2.D-\	(2.a-\	(2.ff\	(2.cc-\	(2.ff\	2.r	(2.aa-\
.	.	.	.	4f'/	.	.	.	.	.	.	.	.	.	.	.	.	.
.	.	.	.	4f'/	.	.	.	.	.	.	.	.	.	.	.	.	.
!! "D3" in Dover (missing flat). Df-7th chord (Df in Vc. e B.)
!! "D3" in Dover (missing flat). Df-7th chord (Df in Vc. e B.) 
=30	=30	=30	=30	=30	=30	=30	=30	=30	=30	=30	=30	=30	=30	=30	=30	=30	=30
2.D-\]	2.D-\]	2.B-/	2.B-/	(8g-/L)	2.r	2.r	2.r	2.r	2.r	2.D-\]	2.D-\]	4b-\)	4gg-\)	2.b-\)	2.gg-\)	2.r	2.bb-\
.	.	.	.	8f/	.	.	.	.	.	.	.	.	.	.	.	.	.
.	.	.	.	8g-/	.	.	.	.	.	.	.	4r	4r	.	.	.	.
.	.	.	.	8a-/J)	.	.	.	.	.	.	.	.	.	.	.	.	.
.	.	.	.	4g-'/	.	.	.	.	.	.	.	4r	4r	.	.	.	.
=31	=31	=31	=31	=31	=31	=31	=31	=31	=31	=31	=31	=31	=31	=31	=31	=31	=31
(2.D-\	(2.D-\	2.a-\)	2.f/)	4cc-'\	2.r	2.r	2.r	2.r	2.r	2.r	4c-'\	2.r	2.r	2.r	2.r	2.r	2.aa-\)
.	.	.	.	4cc-'\	.	.	.	.	.	.	4c-'\	.	.	.	.	.	.
.	.	.	.	4cc-'\	.	.	.	.	.	.	4c-'\	.	.	.	.	.	.
=32	=32	=32	=32	=32	=32	=32	=32	=32	=32	=32	=32	=32	=32	=32	=32	=32	=32
4D\)	4D\)	4f'\	4a-'/	(8b-\L)	2.r	2.r	2.r	2.r	2.r	2.r	(8B-\L)	4r	4r	4ff'\	4aa-'\	2.r	4ff\
.	.	.	.	8a\	.	.	.	.	.	.	8A\	.	.	.	.	.	.
4r	4d'\	4f'\	4a-'/	8b-\	.	.	.	.	.	.	8B-\	4r	4r	4ff'\	4aa-'\	.	4r
.	.	.	.	8cc-\J)	.	.	.	.	.	.	8c-\J)	.	.	.	.	.	.
4r	4d'\	4f'\	4a-'/	4b-'\	.	.	.	.	.	.	4B-'\	4b-'\	4b-'\	4ff'\	4aa-'\	.	4r
=33	=33	=33	=33	=33	=33	=33	=33	=33	=33	=33	=33	=33	=33	=33	=33	=33	=33
(2.E-\	(8e-\L)	(8e-\L)	(8g/L)	4dd-'\	2.r	2.r	2.r	2.r	2.r	2.r	4d-'\	4b-'\	4b-'\	4ee-'\	4gg'\	2.r	2.r
.	8d\	8d\	8f/	.	.	.	.	.	.	.	.	.	.	.	.	.	.
.	8e-\	8e-\	8g/	4dd-'\	.	.	.	.	.	.	4d-'\	4b-'\	4b-'\	4r	4r	.	.
.	8f\J)	8f\J)	8a-/J)	.	.	.	.	.	.	.	.	.	.	.	.	.	.
.	4e-'\	4e-'\	4g'/	4dd-'\	.	.	.	.	.	.	4d-'\	4b-'\	4b-'\	4r	4r	.	.
=34	=34	=34	=34	=34	=34	=34	=34	=34	=34	=34	=34	=34	=34	=34	=34	=34	=34
4E\)	4e'\	4g'\	4b-'\	(8cc\L)	2.r	2.r	2.r	2.r	2.r	2.r	(8c\L)	4g'/	4g'/	4gg'\	4bb-'\	2.r	2.r
.	.	.	.	8b\	.	.	.	.	.	.	8B\	.	.	.	.	.	.
4r	4e'\	4g'\	4b-'\	8cc\	.	.	.	.	.	.	8c\	4r	4r	4gg'\	4bb-'\	.	.
.	.	.	.	8dd-\J)	.	.	.	.	.	.	8d-\J)	.	.	.	.	.	.
4r	4e'\	4g'\	4b-'\	4cc'\	.	.	.	.	.	.	4c'\	4cc'\	4cc'\	4gg'\	4bb-'\	.	.
=35	=35	=35	=35	=35	=35	=35	=35	=35	=35	=35	=35	=35	=35	=35	=35	=35	=35
(2.F\	(8f\L)	(8f\L)	(8a/L)	4ee-'\	2.r	2.r	2.r	2.r	2.r	2.r	4e-'\	4cc'\	4cc'\	4ff'\	4aa'\	2.r	2.r
.	8e\	8e\	8g/	.	.	.	.	.	.	.	.	.	.	.	.	.	.
.	8f\	8f\	8a/	4ee-'\	.	.	.	.	.	.	4e-'\	4cc'\	4cc'\	4r	4r	.	.
.	8g\J)	8g\J)	8b-/J)	.	.	.	.	.	.	.	.	.	.	.	.	.	.
.	4f'\	4f'\	4a'/	4ee-'\	.	.	.	.	.	.	4e-'\	4cc'\	4cc'\	4r	4r	.	.
=36	=36	=36	=36	=36	=36	=36	=36	=36	=36	=36	=36	=36	=36	=36	=36	=36	=36
4F#\)	4f#'\	4a'\	4cc'\	(8dd\L)	2.r	2.r	2.r	2.r	2.r	2.r	(8d\L)	4a\	4a\	4aa'\	4ccc'\	2.r	2.r
.	.	.	.	8cc\	.	.	.	.	.	.	8c\	.	.	.	.	.	.
4r	4f#'\	4a'\	4cc'\	8dd\	.	.	.	.	.	.	8d\	4r	4r	4aa'\	4ccc'\	.	.
.	.	.	.	8ee-\J)	.	.	.	.	.	.	8e-\J)	.	.	.	.	.	.
4r	4f#'\	4a'\	4cc'\	4dd'\	.	.	.	.	.	.	4d'\	4dd'\	4dd'\	4aa'\	4ccc'\	.	.
=37	=37	=37	=37	=37	=37	=37	=37	=37	=37	=37	=37	=37	=37	=37	=37	=37	=37
4G'\	(8g\L)	(8g\L)	(8b-\L)	4ddd'\	2.r	2.r	2.r	2.r	2.r	2.G\	2.G\	4dd'\	4dd'\	4gg'\	4bb-'\	4ddd'\	4ddd'\
.	8f#\	8f#\	8a\	.	.	.	.	.	.	.	.	.	.	.	.	.	.
4G'\	8g\	8g\	8b-\	4ddd'\	.	.	.	.	.	.	.	4dd'\	4dd'\	4r	4r	4ddd'\	4ddd'\
.	8a\J)	8a\J)	8cc\J)	.	.	.	.	.	.	.	.	.	.	.	.	.	.
4G'\	4g'\	4g'\	4b-'\	4ddd'\	.	.	.	.	.	.	.	4dd'\	4dd'\	4r	4r	4ddd'\	4ddd'\
=38	=38	=38	=38	=38	=38	=38	=38	=38	=38	=38	=38	=38	=38	=38	=38	=38	=38
2.A\	2.A\	2.a\	4cc'\	(8ff#\L)	2.r	2.r	2.r	2.r	2.r	2.A\	2.A\	[2.dd\	[2.dd\	2.r	2.r	(8ff#\L)	(8ff#\L)
.	.	.	.	8ee\	.	.	.	.	.	.	.	.	.	.	.	8ee\	8ee\
.	.	.	4cc'\	8ff#\	.	.	.	.	.	.	.	.	.	.	.	8ff#\	8ff#\
.	.	.	.	8gg\J)	.	.	.	.	.	.	.	.	.	.	.	8gg\J)	8gg\J)
.	.	.	4cc'\	4ff#'\	.	.	.	.	.	.	.	.	.	.	.	4ff#'\	4ff#'\
=39	=39	=39	=39	=39	=39	=39	=39	=39	=39	=39	=39	=39	=39	=39	=39	=39	=39
2.B-\	2.B-\	4b-\	4dd\	(8gg\L	2.r	2.r	2.r	2.r	2.r	2.B-\	2.B-\	2dd\]	2dd\]	2.r	2.r	(8gg\L	(8gg\L
.	.	.	.	8dd\	.	.	.	.	.	.	.	.	.	.	.	8dd\	8dd\
.	.	4B-/	4d/	8bb-\	.	.	.	.	.	.	.	.	.	.	.	8bb-\	8bb-\
.	.	.	.	8gg\	.	.	.	.	.	.	.	.	.	.	.	8gg\	8gg\
.	.	4B-/	4d/	8dd\	.	.	.	.	.	.	.	4r	4r	.	.	8dd\	8dd\
.	.	.	.	8b-\J)	.	.	.	.	.	.	.	.	.	.	.	8b-\J)	8b-\J)
=40	=40	=40	=40	=40	=40	=40	=40	=40	=40	=40	=40	=40	=40	=40	=40	=40	=40
2.c\	2.c\	2.c\	2.e-/	(8a\L	2.r	2.r	2.r	2.r	2.r	2.c\	2.c\	2.r	2.r	2.r	2.r	(8a\L	(8a\L
.	.	.	.	8b-\	.	.	.	.	.	.	.	.	.	.	.	8b-\	8b-\
.	.	.	.	8b\	.	.	.	.	.	.	.	.	.	.	.	8b\	8b\
.	.	.	.	8cc\	.	.	.	.	.	.	.	.	.	.	.	8cc\	8cc\
.	.	.	.	8cc#\	.	.	.	.	.	.	.	.	.	.	.	8cc#\	8cc#\
.	.	.	.	8dd\J)	.	.	.	.	.	.	.	.	.	.	.	8dd\J)	8dd\J)
=41	=41	=41	=41	=41	=41	=41	=41	=41	=41	=41	=41	=41	=41	=41	=41	=41	=41
4r	4r	4r	(4c/	(4ee-\	2.r	2.r	2.r	2.r	2.r	4r	4r	2.r	2.r	2.r	2.r	(4ee-\	(4ee-\
4r	4r	4r	4B-/)	4dd\)	.	.	.	.	.	4r	4r	.	.	.	.	4dd\)	4dd\)
4d'\	4d'\	4d'\	4A'/	4f#'/	.	.	.	.	.	4d'\	4d'\	.	.	.	.	4f#'/	4f#'/
=42	=42	=42	=42	=42	=42	=42	=42	=42	=42	=42	=42	=42	=42	=42	=42	=42	=42
4B-'\	4B-'\	2G/	4G/	4g/	2.r	2.r	2.r	2.r	2.r	4B-'\	4B-'\	2.r	2.r	2.r	2.r	4g/	4g/
4G'\	4G'\	.	4r	4r	.	.	.	.	.	4G'\	4G'\	.	.	.	.	4r	4r
4D'\	4D'\	4b-'\	4bb-'\	4bb-'\	.	.	.	.	.	4D'\	4D'\	.	.	.	.	4bb-'\	4bb-'\
=43	=43	=43	=43	=43	=43	=43	=43	=43	=43	=43	=43	=43	=43	=43	=43	=43	=43
4BB-'/	4BB-'/	4g'\	4gg'\	4gg'\	2.r	2.r	2.r	2.r	2.r	4BB-'/	4BB-'/	2.r	2.r	2.r	2.r	4gg'\	4gg'\
4r	4r	4d'\	4dd'\	4dd'\	.	.	.	.	.	4r	4r	.	.	.	.	4dd'\	4dd'\
4g'\	4g'\	4B-'/	4b-'\	4b-'\	.	.	.	.	.	4g'\	4g'\	.	.	.	.	4b-'\	4b-'\
=44	=44	=44	=44	=44	=44	=44	=44	=44	=44	=44	=44	=44	=44	=44	=44	=44	=44
4e-'\	4e-'\	4G'/	4g'/	4g'/	2.r	2.r	2.r	4r	4r	4e-'\	4e-'\	4r	4r	4r	4r	4g'/	4g'/
4B-'\	4B-'\	4r	4r	4r	.	.	.	4r	4r	4B-'\	4B-'\	4r	4r	4r	4r	4r	4r
4G'\	4G'\	4b-'\	4bb-'\	4bb-'\	.	.	.	4E-'/	4e-'\	4E-'\	4E-'\	4b-'\	4bb-'\	4gg'\	4bb-'\	4gg'\	4bb-'\
=45	=45	=45	=45	=45	=45	=45	=45	=45	=45	=45	=45	=45	=45	=45	=45	=45	=45
4E-'\	4E-'\	4g'\	4gg'\	4gg'\	2.r	2.r	2.r	4G'/	4g'\	4G'\	4G'\	4g'/	4gg'\	4ee-'\	4gg'\	4ee-'\	4gg'\
4r	4r	4e-'\	4ee-'\	4ee-'\	.	.	.	4B-'/	4b-'\	4B-'\	4B-'\	4e-'/	4ee-'\	4b-'\	4ee-'\	4b-'\	4ee-'\
4r	4r	4B-'/	4b-'\	4b-'\	.	.	.	4e-'\	4ee-'\	4e-'\	4e-'\	4B-'/	4b-'\	4g'/	4b-'\	4g'/	4b-'\
=46	=46	=46	=46	=46	=46	=46	=46	=46	=46	=46	=46	=46	=46	=46	=46	=46	=46
4r	4r	4G'/	4g'/	4g'/	4r	4r	4r	4g'\	4gg'\	4g'\	4g'\	4G'/	4g'/	4e-'/	4g'/	4e-'/	4g'/
4r	4r	4r	4r	4r	4r	4r	4r	4r	4r	4r	4r	4r	4r	4r	4r	4r	4r
4G'\	4G'\	4B-'/	4e-'/	4e-'/	4E-'\	4e-'/	4ee-'\	4r	4r	4B-'\	4B-'\	4r	4r	4ee-'\	4ee-'\	4r	4ee-'\
=47	=47	=47	=47	=47	=47	=47	=47	=47	=47	=47	=47	=47	=47	=47	=47	=47	=47
4F'\	4F'\	4A-'/	4d'/	4d'/	4BB-'/	4B-'/	4b-'/	2.r	2.r	4A-'\	4A-'\	2.r	2.r	4dd'\	4dd'\	2.r	4dd'\
4F'\	4F'\	4A-'/	4d'/	4d'/	4BB-'/	4B-'/	4b-'/	.	.	4A-'\	4A-'\	.	.	4dd'\	4dd'\	.	4dd'\
4E-'\	4E-'\	4G'/	4c'/	4c'/	4BB-'/	4B-'/	4b-'/	.	.	4G'\	4G'\	.	.	4cc'\	4cc'\	.	4cc'\
=48	=48	=48	=48	=48	=48	=48	=48	=48	=48	=48	=48	=48	=48	=48	=48	=48	=48
4D'\	4D'\	4F'/	4B-'/	4B-'/	4BB-'/	4B-'/	4b-'/	4r	4r	4F'\	4F'\	4r	4r	4b-'\	4b-'\	4r	4b-'\
4r	4r	4r	4r	4r	4r	4r	4r	4r	4r	4r	4r	4r	4r	4r	4r	4r	4r
4r	4r	4b-'\	4bb-'\	4bb-'\	4r	4r	4r	4B-'/	4b-'\	4BB-'/	4BB-'/	4b-'\	4bb-'\	4dd'\	4bb-'\	4d'/	4bb-'\
=49	=49	=49	=49	=49	=49	=49	=49	=49	=49	=49	=49	=49	=49	=49	=49	=49	=49
2.r	2.r	4a-'\	4aa-'\	4aa-'\	2.r	2.r	2.r	4f'\	4b-'\	4D'\	4D'\	4a-'\	4aa-'\	4ff'\	4aa-'\	4f'/	4aa-'\
.	.	4f'\	4ff'\	4ff'\	.	.	.	4a-'\	4b-'\	4F'\	4F'\	4f'/	4ff'\	4a-'/	4ff'\	4a-'/	4ff'\
.	.	4d'\	4dd'\	4dd'\	.	.	.	4a-'\	4b-'\	4A-'\	4A-'\	4d'/	4dd'\	4f'/	4dd'\	4f'/	4dd'\
=50	=50	=50	=50	=50	=50	=50	=50	=50	=50	=50	=50	=50	=50	=50	=50	=50	=50
4r	4r	4B-'/	4b-'\	4b-'\	4r	4r	4r	4f'\	4b-'\	4A-'\	4A-'\	4B-'/	4b-'\	4d'/	4b-'\	4d'/	4b-'\
4r	4r	4r	4r	4r	4r	4r	4r	4r	4r	4r	4r	4r	4r	4r	4r	4r	4r
4cz'\	4cz'\	4cz'\	4e-z/	4a-z'/	4E-z'\	4e-z/	4ee-z\	4r	4r	4r	4r	4r	4r	4r	4r	4r	4r
=51	=51	=51	=51	=51	=51	=51	=51	=51	=51	=51	=51	=51	=51	=51	=51	=51	=51
4B-'\	4B-'\	4B-'/	2e-/	4g'/	4E-'\	2e-/	2ee-\	2.r	2.r	2.r	2.r	2.r	2.r	2.r	2.r	2.r	2.r
4B-'\	4B-'\	4B-'/	.	4g'/	4E-'\	.	.	.	.	.	.	.	.	.	.	.	.
4A-z'\	4A-z'\	4A-z'/	4e-z/	4ccz'\	4E-z'\	4e-z/	4ee-z\	.	.	.	.	.	.	.	.	.	.
=52	=52	=52	=52	=52	=52	=52	=52	=52	=52	=52	=52	=52	=52	=52	=52	=52	=52
4G'\	4G'\	4G'/	2e-/	4b-'\	4E-'\	2e-/	2.ee-\	4r	4r	2.r	2.r	2.r	2.r	4r	4r	2.r	4r
4G'\	4G'\	4G'/	.	4b-'\	4E-'\	.	.	4r	4r	.	.	.	.	4r	4r	.	4r
4r	4r	(4gz\	[4b-z\	(4ee-z\	4r	4r	.	4B-z/	4b-z\	.	.	.	.	(4gz/	(4gz/	.	(4ee-z\
=53	=53	=53	=53	=53	=53	=53	=53	=53	=53	=53	=53	=53	=53	=53	=53	=53	=53
2.r	2.r	4f\)	4b-\]	4dd\)	2.r	2.r	2.r	4B-/	4b-\	2.r	2.r	2.r	2.r	4f/)	4f/)	2.r	4dd\)
.	.	(4a-z\	2b-z\	(4ffz\	.	.	.	4B-z/	4b-z\	.	.	.	.	(4a-z/	(4a-z/	.	(4ffz\
.	.	4g\)	.	4ee-\)	.	.	.	4B-/	4b-\	.	.	.	.	4g/)	4g/)	.	4ee-\)
=54	=54	=54	=54	=54	=54	=54	=54	=54	=54	=54	=54	=54	=54	=54	=54	=54	=54
(4cz\	(4cz\	(4cz\	2ee-z/ 2e-/	(4aa-z\	4E-z\	4e-z/	4ee-z\	4E-z/	4e-z\	(4cz\	(4cz\	4r	4r	4ee-\	4ee-\	2.r	(4aa-\
4B-\)	4B-\)	4B-/)	.	4gg\)	4E-\	4e-/	4ee-\	4E-/	4e-\	4B-\)	4B-\)	4r	4r	4ee-\	4ee-\	.	4gg\)
(4A-z\	(4A-z\	(4A-z/	[4ee-z/ [4e-/	(4cccz\	4E-z\	4e-z/	4ee-z\	4E-z/	4e-z\	(4A-z\	(4A-z\	(4ccz\	(4ccz\	[4ee-z\	(4cccz\	.	(4cccz\
=55	=55	=55	=55	=55	=55	=55	=55	=55	=55	=55	=55	=55	=55	=55	=55	=55	=55
4G\)	4G\)	4G/)	4ee-/] 4e-/]	4bb-\)	4E-\	4e-/	4ee-\	4E-/	4e-\	4G\)	4G\)	4b-\)	4b-\)	4ee-\]	4bb-\)	2.r	4bb-\)
(4Fz\	(4Fz\	4Fz'/	4aa-z'\	4dddz'\	4r	4b-z'/	4ffz'\	4B-z'/	4fz'\	(4Fz\	(4Fz\	4ddz'\	4ffz'\	4ddz'\	4aa-z'\	.	4dddz'\
4E-\)	4E-\)	4E-'/	4gg'\	4eee-'\	4r	4ee-'\	4gg'\	4e-'\	4g'\	4E-\)	4E-\)	4ee-'\	4gg'\	4ee-'\	4gg'\	.	4eee-'\
=56	=56	=56	=56	=56	=56	=56	=56	=56	=56	=56	=56	=56	=56	=56	=56	=56	=56
2D;\	2D;\	2D;/	2aa-;\ 2b-\	2fff;\	16BB-/LL	2b-;/	2ff;\	2B-;/	2f;\	2D;\	2D;\	2ff;\	2aa-;\	2ff;\	2aa-;\	2r	2fff;\
.	.	.	.	.	16BB-/	.	.	.	.	.	.	.	.	.	.	.	.
.	.	.	.	.	16BB-/	.	.	.	.	.	.	.	.	.	.	.	.
.	.	.	.	.	16BB-/	.	.	.	.	.	.	.	.	.	.	.	.
.	.	.	.	.	16BB-/	.	.	.	.	.	.	.	.	.	.	.	.
.	.	.	.	.	16BB-/	.	.	.	.	.	.	.	.	.	.	.	.
.	.	.	.	.	16BB-/	.	.	.	.	.	.	.	.	.	.	.	.
.	.	.	.	.	16BB-/JJ	.	.	.	.	.	.	.	.	.	.	.	.
4r	4r	4r	4r	4A/	4r	4r	4r	4r	4r	4r	4r	4r	4r	4r	4r	4r	4r
=57	=57	=57	=57	=57	=57	=57	=57	=57	=57	=57	=57	=57	=57	=57	=57	=57	=57
2.r	2.r	2.r	2.r	(4B-/	2.r	2.r	2.r	2.r	2.r	2.r	2.r	2.r	2.r	2.r	2.r	2.r	2.r
.	.	.	.	4d/	.	.	.	.	.	.	.	.	.	.	.	.	.
.	.	.	.	4f/)	.	.	.	.	.	.	.	.	.	.	.	.	.
=58	=58	=58	=58	=58	=58	=58	=58	=58	=58	=58	=58	=58	=58	=58	=58	=58	=58
(2B\	(2B\	(2B/	(2f/	(2a-/	2.r	2.r	2.r	2.r	2.r	2.r	2.r	2.r	2.r	2.r	2.r	2.r	2.r
4c\)	4c\)	4c\)	4e-/)	4g/)	.	.	.	.	.	.	.	.	.	.	.	.	.
=59	=59	=59	=59	=59	=59	=59	=59	=59	=59	=59	=59	=59	=59	=59	=59	=59	=59
(2A-\	(2A-\	(2A-/	(4.e-/	(4.ccS\	2.r	2.r	2.r	2.r	2.r	2.r	2.r	2.r	2.r	2.r	2.r	2.r	2.r
.	.	.	8f/	8dd\	.	.	.	.	.	.	.	.	.	.	.	.	.
4A\)	4A\)	4A/)	4g-/)	4ee-\)	.	.	.	.	.	.	.	.	.	.	.	.	.
=60	=60	=60	=60	=60	=60	=60	=60	=60	=60	=60	=60	=60	=60	=60	=60	=60	=60
2.B-\	2.B-\	2.B-/	2.e-/ 2.G/	(2e-/	2.r	2.r	2.r	2.r	2.r	2.r	2.r	2.r	2.r	2.r	2.r	2.r	2.r
.	.	.	.	4g/)	.	.	.	.	.	.	.	.	.	.	.	.	.
=61	=61	=61	=61	=61	=61	=61	=61	=61	=61	=61	=61	=61	=61	=61	=61	=61	=61
2BB-/	2BB-/	2.F/	2.d/ 2.A-/	(4b-\	4r	4r	4r	4r	4r	2.r	2.r	2.r	2.r	2.r	2.r	2.r	2.r
.	.	.	.	4a-/	4r	4r	4r	4r	4r	.	.	.	.	.	.	.	.
4B-'\	4B-'\	.	.	4f/)	4BB-/	4b-'/	4bb-'\	4B-'/	4b-'\	.	.	.	.	.	.	.	.
=62	=62	=62	=62	=62	=62	=62	=62	=62	=62	=62	=62	=62	=62	=62	=62	=62	=62
4G'\	4G'\	4G/	4e-/ 4G/	4e-/	4E-\	4g'/	4gg'\	4G'/	4g'\	4r	4r	4r	4r	4r	4r	4r	4r
4E-'\	4E-'\	4r	4r	4r	4r	4e-'/	4ee-'\	4E-'/	4e-'\	4r	4r	4r	4r	4r	4r	4r	4r
4BB-'/	4BB-'/	4d\	4f/	4bb-'\	4BB-/	4B-'/	4b-'/	4BB-'/	4B-'/	4d\	4f\	4dd\	4ff\	4bb-'\	4bb-'\	4bb-'\	4bb-'\
=63	=63	=63	=63	=63	=63	=63	=63	=63	=63	=63	=63	=63	=63	=63	=63	=63	=63
4E-'\	4E-'\	2e-\	(4g/	4gg'\	4E-\	4e-'/	4ee-'\	4E-'/	4e-'\	2e-\	2g\	2ee-\	2gg\	4gg'\	4gg'\	4gg'\	4gg'\
4G'\	4G'\	.	4b-\)	4ee-'\	4r	4g'/	4gg'\	4G'/	4g'\	.	.	.	.	4ee-'\	4ee-'\	4ee-'\	4ee-'\
4B-'\	4B-'\	4d\	4f'/	4b-'\	4BB-/	4b-'/	4bb-'\	4B-'/	4b-'\	4d\	4f\	4dd\	4ff\	4b-'\	4b-'\	4b-'\	4b-'\
=64	=64	=64	=64	=64	=64	=64	=64	=64	=64	=64	=64	=64	=64	=64	=64	=64	=64
4G'\	4G'\	2e-\	(4g/	4ee-'\	4E-\	4g'/	4gg'\	4G'/	4g'\	2e-\	2g\	2ee-\	2gg\	4ee-'\	4ee-'\	4ee-'\	4ee-'\
4E-'\	4E-'\	.	4b-\)	4gg'\	4r	4e-'/	4ee-'\	4E-'/	4e-'\	.	.	.	.	4gg'\	4gg'\	4gg'\	4gg'\
4BB-'/	4BB-'/	4d\	4f'/	4bb-'\	4BB-/	4B-'/	4b-'/	4BB-'/	4B-'/	4d\	4f\	4dd\	4ff\	4bb-'\	4bb-'\	4bb-'\	4bb-'\
=65	=65	=65	=65	=65	=65	=65	=65	=65	=65	=65	=65	=65	=65	=65	=65	=65	=65
4E-'\	4E-'\	2e-\	(4g/	4gg'\	4E-\	4e-'/	4ee-'\	4E-'/	4e-'\	2e-\	2g\	2ee-\	2gg\	4gg'\	4gg'\	4gg'\	4gg'\
4G'\	4G'\	.	4b-\)	4ee-'\	4E-\	4g'/	4gg'\	4G'/	4g'\	.	.	.	.	4ee-'\	4ee-'\	4ee-'\	4ee-'\
4B-'\	4B-'\	4d\	4f'/	4b-'\	4BB-/	4b-'/	4bb-'\	4B-'/	4b-'\	4d\	4f\	4dd\	4ff\	4b-'\	4b-'\	4b-'\	4b-'\
=66	=66	=66	=66	=66	=66	=66	=66	=66	=66	=66	=66	=66	=66	=66	=66	=66	=66
4G'\	4G'\	2e-\	(4g/	4ee-'\	4E-\	4g'/	4gg'\	4G'/	4g'\	2e-\	2g\	2ee-\	2gg\	4ee-'\	4ee-'\	4ee-'\	4ee-'\
4E-'\	4E-'\	.	4b-\)	4gg'\	4E-\	4e-'/	4ee-'\	4E-'/	4e-'\	.	.	.	.	4gg'\	4gg'\	4gg'\	4gg'\
4BB-'/	4BB-'/	4d'\	4f'/	4bb-'\	4BB-/	4B-'/	4b-'/	4BB-'/	4B-'/	4d\	4f\	4dd\	4ff\	4bb-'\	4bb-'\	4bb-'\	4bb-'\
=67	=67	=67	=67	=67	=67	=67	=67	=67	=67	=67	=67	=67	=67	=67	=67	=67	=67
4E-'\	4E-'\	4e-'\	(4g/	4gg'\	4E-\	4e-'/	4ee-'\	4E-'/	4e-'\	4e-\	4g\	4ee-\	4gg\	4gg'\	4gg'\	4gg'\	4gg'\
4G'\	4G'\	4g'\	4b-\)	4ee-'\	4E-\	4g'/	4gg'\	4G'/	4g'\	4e-\	4g\	4ee-\	4gg\	4ee-'\	4ee-'\	4eee-'\	4eee-'\
4B-'\	4B-'\	4b-'\	4ff/ 4b-/ 4d'/	4ff/ 4b-/ 4d'/	4BB-/	4b-'/	4ff'\	4B-'/	4f'\	4d\	4f\	4dd\	4ff\	4dd'\	4ff'\	4ddd'\	4ddd'\
=68	=68	=68	=68	=68	=68	=68	=68	=68	=68	=68	=68	=68	=68	=68	=68	=68	=68
4e-'\	4e-'\	4e-'\	4gg/ 4b-/ 4e-'/	4gg/ 4b-/ 4e-'/	4E-\	4g'/	4ee-'\	4G'/	4e-'\	4e-\	4e-\	4ee-\	4ee-\	4ee-'\	4gg'\	4eee-'\	4eee-'\
4r	4r	4r	4r	4r	4r	4r	4r	4r	4r	4r	4r	4r	4r	4r	4r	4r	4r
=:|!@	=:|!@	=:|!@	=:|!@	=:|!@	=:|!@	=:|!@	=:|!@	=:|!@	=:|!@	=:|!@	=:|!@	=:|!@	=:|!@	=:|!@	=:|!@	=:|!@	=:|!@
*>C	*>C	*>C	*>C	*>C	*>C	*>C	*>C	*>C	*>C	*>C	*>C	*>C	*>C	*>C	*>C	*>C	*>C
*k[bnenan]	*k[bnenan]	*k[bnenan]	*k[bnenan]	*k[bnenan]	*k[bnenan]	*k[bnenan]	*k[bnenan]	*k[bnenan]	*k[bnenan]	*k[bnenan]	*k[bnenan]	*k[bn]	*k[bn]	*k[bnenan]	*k[bnenan]	*k[bnenan]	*k[bnenan]
*M3/4	*M3/4	*M3/4	*M3/4	*M3/4	*M3/4	*M3/4	*M3/4	*M3/4	*M3/4	*M3/4	*M3/4	*M3/4	*M3/4	*M3/4	*M3/4	*M3/4	*M3/4
!! Trio
4r	4r	4r	4r	4r	4r	4r	4r	4r	4r	4r	4r	4r	4r	4g'/	4gg'\	4r	4r
=69	=69	=69	=69	=69	=69	=69	=69	=69	=69	=69	=69	=69	=69	=69	=69	=69	=69
2.r	2.r	2.r	2.r	2.r	2.r	2.r	2.r	2.r	2.r	2.r	2.r	2.r	2.r	4g'/	4gg'\	2.r	2.r
.	.	.	.	.	.	.	.	.	.	.	.	.	.	4g'/	4gg'\	.	.
.	.	.	.	.	.	.	.	.	.	.	.	.	.	4g'/	4gg'\	.	.
=70	=70	=70	=70	=70	=70	=70	=70	=70	=70	=70	=70	=70	=70	=70	=70	=70	=70
4r	4r	4r	4r	4r	4r	4r	4r	4r	4r	4r	4r	4r	4r	4g'/	4gg'\	4r	4r
4r	4r	4r	4r	4r	4r	4r	4r	4r	4r	4r	4r	4r	4r	4r	4r	4r	4r
=!|:@	=!|:@	=!|:@	=!|:@	=!|:@	=!|:@	=!|:@	=!|:@	=!|:@	=!|:@	=!|:@	=!|:@	=!|:@	=!|:@	=!|:@	=!|:@	=!|:@	=!|:@
*>D	*>D	*>D	*>D	*>D	*>D	*>D	*>D	*>D	*>D	*>D	*>D	*>D	*>D	*>D	*>D	*>D	*>D
4r	4r	4r	4r	4gg'\	4r	4r	4r	4r	4r	4r	4r	4r	4r	4r	4gg'\	4r	4r
=71	=71	=71	=71	=71	=71	=71	=71	=71	=71	=71	=71	=71	=71	=71	=71	=71	=71
4C/	4C/	2.r	4g'/	(4ff\	2.r	2.r	2.r	2.r	2.r	2.r	2.r	2.r	2.r	2.r	(4ff\	2.r	2.r
4r	4c'\	.	4g'/	4ee\)	.	.	.	.	.	.	.	.	.	.	4ee\)	.	.
4r	4c'\	.	4g'/	4ee'\	.	.	.	.	.	.	.	.	.	.	4ee'\	.	.
=72	=72	=72	=72	=72	=72	=72	=72	=72	=72	=72	=72	=72	=72	=72	=72	=72	=72
2.r	(4c'\	2.r	(2g/	(2ee\	2.r	2.r	2.r	2.r	2.r	2.r	2.r	2.r	2.r	2.r	(2ee\	2.r	2.r
.	4c'\	.	.	.	.	.	.	.	.	.	.	.	.	.	.	.	.
.	4c'\)	.	4f/)	4dd\)	.	.	.	.	.	.	.	.	.	.	4dd\)	.	.
=73	=73	=73	=73	=73	=73	=73	=73	=73	=73	=73	=73	=73	=73	=73	=73	=73	=73
4C/	4C/	2.r	(4f/)	(4dd\)	2.r	2.r	2.r	2.r	2.r	2.r	2.r	2.r	2.r	2.r	(4dd\)	2.r	2.r
4r	4c'\	.	4e/)	4cc\)	.	.	.	.	.	.	.	.	.	.	4cc\)	.	.
4r	4c'\	.	4e'/	4cc'\	.	.	.	.	.	.	.	.	.	.	4cc'\	.	.
=74	=74	=74	=74	=74	=74	=74	=74	=74	=74	=74	=74	=74	=74	=74	=74	=74	=74
2.r	4c'\	4r	2e/	2cc\	2.r	2.r	2.r	2.r	2.r	2.r	2.r	2.r	2.r	2.r	2cc\	2.r	2.r
.	4c'\	4r	.	.	.	.	.	.	.	.	.	.	.	.	.	.	.
.	4c'\	4ez\	4g#z/	4ccc\	.	.	.	.	.	.	.	.	.	.	4ccc\	.	.
=75	=75	=75	=75	=75	=75	=75	=75	=75	=75	=75	=75	=75	=75	=75	=75	=75	=75
2.r	[2.c\	2f\	2a/	(4bb\	2.r	2.r	2.r	2.r	2.r	2.r	2.r	2.r	2.r	2.r	(4bb\	2.r	2.r
.	.	.	.	4aa\)	.	.	.	.	.	.	.	.	.	.	4aa\)	.	.
.	.	4d#z\	4f#z/	4ccc\	.	.	.	.	.	.	.	.	.	.	4ccc\	.	.
=76	=76	=76	=76	=76	=76	=76	=76	=76	=76	=76	=76	=76	=76	=76	=76	=76	=76
4r	2c\]	2e\	2g/	(4aa\	2.r	2.r	2.r	2.r	2.r	2.r	2.r	2.r	2.r	2.r	(4aa\	2.r	2.r
4r	.	.	.	4gg\)	.	.	.	.	.	.	.	.	.	.	4gg\)	.	.
4E\	4E\	4c\	4g#/	4gg#\	.	.	.	.	.	.	.	.	.	.	4gg#\	.	.
=77	=77	=77	=77	=77	=77	=77	=77	=77	=77	=77	=77	=77	=77	=77	=77	=77	=77
[2.F\	[2.F\	(2c\	(4b\	(4bb\	2.r	2.r	2.r	2.r	2.r	2.r	2.r	2.r	2.r	2.r	(4bb\	2.r	2.r
.	.	.	4a/	4aa\	.	.	.	.	.	.	.	.	.	.	4aa\	.	.
.	.	4c#\	4g/	4gg\	.	.	.	.	.	.	.	.	.	.	4gg\	.	.
=78	=78	=78	=78	=78	=78	=78	=78	=78	=78	=78	=78	=78	=78	=78	=78	=78	=78
2F\]	2F\]	2d\)	4f/	4ff\	2.r	2.r	2.r	2.r	2.r	2.r	2.r	2.r	2.r	2.r	4ff\	2.r	2.r
.	.	.	4e/	4ee\	.	.	.	.	.	.	.	.	.	.	4ee\	.	.
4F#\	4F#\	4F#/	4d/)	4dd\)	.	.	.	.	.	.	.	.	.	.	4dd\)	.	.
=79	=79	=79	=79	=79	=79	=79	=79	=79	=79	=79	=79	=79	=79	=79	=79	=79	=79
(4A\	(4A\	(4A/	(2.c/	(2.cc\	2.r	2.r	2.r	2.r	2.r	2.r	2.r	2.r	2.r	2.r	(2.cc\	2.r	2.r
4G\	4G\	4G/	.	.	.	.	.	.	.	.	.	.	.	.	.	.	.
4F#\)	4F#\)	4F#/)	.	.	.	.	.	.	.	.	.	.	.	.	.	.	.
=80	=80	=80	=80	=80	=80	=80	=80	=80	=80	=80	=80	=80	=80	=80	=80	=80	=80
4G'\	4G'\	4G'/	4B'/)	4b'\)	4r	4r	4r	4r	4r	4r	4r	4r	4r	4r	4b'\)	4r	4r
4r	4r	4r	4r	4r	4r	4r	4r	4r	4r	4r	4r	4r	4r	4r	4r	4r	4r
=:||:@	=:||:@	=:||:@	=:||:@	=:||:@	=:||:@	=:||:@	=:||:@	=:||:@	=:||:@	=:||:@	=:||:@	=:||:@	=:||:@	=:||:@	=:||:@	=:||:@	=:||:@
*>E	*>E	*>E	*>E	*>E	*>E	*>E	*>E	*>E	*>E	*>E	*>E	*>E	*>E	*>E	*>E	*>E	*>E
4r	4r	4r	4A#'/	4cc#'\	4r	4r	4r	4r	4r	4r	4r	4r	4r	4r	4cc#'\	4r	4r
=81	=81	=81	=81	=81	=81	=81	=81	=81	=81	=81	=81	=81	=81	=81	=81	=81	=81
2.r	4GG/	2.r	(4A#/	(4cc#\	2.r	2.r	2.r	2.r	2.r	2.r	2.r	2.r	2.r	2.r	(4cc#\	2.r	2.r
.	4G\	.	4B/)	4dd\)	.	.	.	.	.	.	.	.	.	.	4dd\)	.	.
.	4G\	.	4B'/	4dd'\	.	.	.	.	.	.	.	.	.	.	4dd'\	.	.
=82	=82	=82	=82	=82	=82	=82	=82	=82	=82	=82	=82	=82	=82	=82	=82	=82	=82
2.r	4G\	2.r	(2B/	(2dd\	2.r	2.r	2.r	2.r	2.r	2.r	2.r	2.r	2.r	2.r	(2dd\	2.r	2.r
.	4G\	.	.	.	.	.	.	.	.	.	.	.	.	.	.	.	.
.	4G\	.	4c#/)	4ee\)	.	.	.	.	.	.	.	.	.	.	4ee\)	.	.
=83	=83	=83	=83	=83	=83	=83	=83	=83	=83	=83	=83	=83	=83	=83	=83	=83	=83
2.r	4GG/	2.r	(4c#/	(4ee\	2.r	2.r	2.r	2.r	2.r	2.r	2.r	2.r	2.r	2.r	(4ee\	2.r	2.r
.	4G\	.	4d/)	4ff\)	.	.	.	.	.	.	.	.	.	.	4ff\)	.	.
.	4G\	.	4d'/	4ff'\	.	.	.	.	.	.	.	.	.	.	4ff'\	.	.
=84	=84	=84	=84	=84	=84	=84	=84	=84	=84	=84	=84	=84	=84	=84	=84	=84	=84
2.r	4G\	2.r	(2d/	(2ff\	2.r	2.r	2.r	2.r	2.r	2.r	2.r	2.r	2.r	2.r	(2ff\	2.r	2.r
.	4G\	.	.	.	.	.	.	.	.	.	.	.	.	.	.	.	.
.	4G\	.	4d#/)	4ff#\)	.	.	.	.	.	.	.	.	.	.	4ff#\)	.	.
=85	=85	=85	=85	=85	=85	=85	=85	=85	=85	=85	=85	=85	=85	=85	=85	=85	=85
2.r	[2.G\	2.r	(4f/	(4aa\	2.r	2.r	2.r	2.r	2.r	2.r	2.r	2.r	2.r	2.r	(4aa\	2.r	2.r
.	.	.	4e/	4gg\	.	.	.	.	.	.	.	.	.	.	4gg\	.	.
.	.	.	4g/	4bb-\	.	.	.	.	.	.	.	.	.	.	4bb-\	.	.
=86	=86	=86	=86	=86	=86	=86	=86	=86	=86	=86	=86	=86	=86	=86	=86	=86	=86
2.r	2.G_\	2.r	4f/	4aa\	2.r	2.r	2.r	2.r	2.r	2.r	2.r	2.r	2.r	2.r	4aa\	2.r	2.r
.	.	.	4e/	4gg\	.	.	.	.	.	.	.	.	.	.	4gg\	.	.
.	.	.	4d/)	4ff\)	.	.	.	.	.	.	.	.	.	.	4ff\)	.	.
=87	=87	=87	=87	=87	=87	=87	=87	=87	=87	=87	=87	=87	=87	=87	=87	=87	=87
2.r	2.G_\	2.r	(4c/	(4ee\	2.r	2.r	2.r	2.r	2.r	2.r	2.r	2.r	2.r	2.r	(4ee\	2.r	2.r
.	.	.	4d/	4ff\	.	.	.	.	.	.	.	.	.	.	4ff\	.	.
.	.	.	4e/)	4gg\)	.	.	.	.	.	.	.	.	.	.	4gg\)	.	.
=88	=88	=88	=88	=88	=88	=88	=88	=88	=88	=88	=88	=88	=88	=88	=88	=88	=88
2.r	2G\]	2.r	2B/	2dd\	2.r	2.r	2.r	2.r	2.r	2.r	4r	2.r	2.r	2.r	2dd\	2.r	2.r
.	.	.	.	.	.	.	.	.	.	.	4r	.	.	.	.	.	.
.	4r	.	4r	4gg'\	.	.	.	.	.	.	4g'\	.	.	.	4gg'\	.	.
=89	=89	=89	=89	=89	=89	=89	=89	=89	=89	=89	=89	=89	=89	=89	=89	=89	=89
4C/	4C/	2.r	(4g'/	(4ff\	2.r	2.r	2.r	2.r	2.r	2.r	(4f\	2.r	2.r	2.r	(4ff\	2.r	2.r
4r	4c'\	.	4g'/	4ee\)	.	.	.	.	.	.	4e\)	.	.	.	4ee\)	.	.
4r	4c'\	.	4g'/)	4ee'\	.	.	.	.	.	.	4e'\	.	.	.	4ee'\	.	.
=90	=90	=90	=90	=90	=90	=90	=90	=90	=90	=90	=90	=90	=90	=90	=90	=90	=90
2.r	4c'\	4r	(2g/	(2ee\	2.r	2.r	2.r	2.r	2.r	2.r	(2e\	2.r	2.r	2.r	(2ee\	2.r	2.r
.	4c'\	4r	.	.	.	.	.	.	.	.	.	.	.	.	.	.	.
.	4c'\	4b'\	4f/)	4dd\)	.	.	.	.	.	.	4d\)	.	.	.	4dd\)	.	.
=91	=91	=91	=91	=91	=91	=91	=91	=91	=91	=91	=91	=91	=91	=91	=91	=91	=91
4C/	4C/	(4b\	(4f/)	(4dd\)	2.r	2.r	2.r	2.r	2.r	2.r	(4d\)	2.r	2.r	2.r	(4dd\)	2.r	2.r
4r	4c'\	4cc\)	4e/)	4cc\)	.	.	.	.	.	.	4c\)	.	.	.	4cc\)	.	.
4r	4c'\	4cc'\	4e'/	4cc'\	.	.	.	.	.	.	4c'\	.	.	.	4cc'\	.	.
=92	=92	=92	=92	=92	=92	=92	=92	=92	=92	=92	=92	=92	=92	=92	=92	=92	=92
2.r	4c'\	2cc\	2e/	2cc\	2.r	2.r	2.r	2.r	2.r	2.r	2c\	2.r	2.r	2.r	2cc\	2.r	2.r
.	4c'\	.	.	.	.	.	.	.	.	.	.	.	.	.	.	.	.
.	4c'\	4ez\	4g#z/	4ccc\	.	.	.	.	.	.	4r	.	.	.	4ccc\	.	.
=93	=93	=93	=93	=93	=93	=93	=93	=93	=93	=93	=93	=93	=93	=93	=93	=93	=93
2.r	[2.c\	2f\	2a/	(4bb\	2.r	2.r	2.r	2.r	2.r	2.r	2.r	2.r	2.r	2.r	(4bb\	2.r	2.r
.	.	.	.	4aa\)	.	.	.	.	.	.	.	.	.	.	4aa\)	.	.
.	.	4d#z\	4f#z/	4ccc\	.	.	.	.	.	.	.	.	.	.	4ccc\	.	.
=94	=94	=94	=94	=94	=94	=94	=94	=94	=94	=94	=94	=94	=94	=94	=94	=94	=94
2.r	2c\]	2e\	2g/	(4aa\	2.r	2.r	2.r	2.r	2.r	2.r	4r	2.r	2.r	2.r	(4aa\	2.r	2.r
.	.	.	.	4gg\)	.	.	.	.	.	.	4r	.	.	.	4gg\)	.	.
.	4r	4c\	4e/	4eee\	.	.	.	.	.	.	4e\	.	.	.	4eee\	.	.
=95	=95	=95	=95	=95	=95	=95	=95	=95	=95	=95	=95	=95	=95	=95	=95	=95	=95
4r	4r	(4d\	(4f/	(4ddd\	2.r	2.r	2.r	2.r	2.r	2.r	(4d\	2.r	2.r	2.r	(4ddd\	2.r	2.r
4r	4r	4e\)	4g/	4ccc\	.	.	.	.	.	.	4c\	.	.	.	4ccc\	.	.
4E\	4E\	4r	4G/	4bb\	.	.	.	.	.	.	4B\	.	.	.	4bb\	.	.
=96	=96	=96	=96	=96	=96	=96	=96	=96	=96	=96	=96	=96	=96	=96	=96	=96	=96
(4F\	(4F\	4r	4A/	4aa\	2.r	2.r	2.r	2.r	2.r	2.r	4A\	2.r	2.r	2.r	4aa\	2.r	2.r
4G\	4G\	4r	4B/	4gg\	.	.	.	.	.	.	4G\	.	.	.	4gg\	.	.
4A\)	4A\)	4d\	4c/)	4ff#\)	.	.	.	.	.	.	4F#\)	.	.	.	4ff#\)	.	.
=97	=97	=97	=97	=97	=97	=97	=97	=97	=97	=97	=97	=97	=97	=97	=97	=97	=97
2.G\	2.G\	2.c\	2.e/	2.gg\	2.r	2.r	2.r	2.r	2.r	2.r	2G\	2.r	2.r	2.r	2.gg\	2.r	2.r
.	.	.	.	.	.	.	.	.	.	.	4g\	.	.	.	.	.	.
=98	=98	=98	=98	=98	=98	=98	=98	=98	=98	=98	=98	=98	=98	=98	=98	=98	=98
2.G\	2.G\	2f\	(4d/	(4ff\	2.r	2.r	2.r	2.r	2.r	2.r	(4f\	2.r	2.r	2.r	(4ff\	2.r	2.r
.	.	.	4f/)	4dd\	.	.	.	.	.	.	4d\	.	.	.	4dd\	.	.
.	.	4d\	4f'/	4b\)	.	.	.	.	.	.	4B\)	.	.	.	4b\)	.	.
=99	=99	=99	=99	=99	=99	=99	=99	=99	=99	=99	=99	=99	=99	=99	=99	=99	=99
2C/	2C/	(2.B/	(2.f/	(2.dd\	2.r	2.r	2.r	2.r	2.r	2.r	(2.d\	2.r	2.r	2.r	(2.dd\	2.r	2.r
4G\	4G\	.	.	.	.	.	.	.	.	.	.	.	.	.	.	.	.
=100	=100	=100	=100	=100	=100	=100	=100	=100	=100	=100	=100	=100	=100	=100	=100	=100	=100
4c\	4c\	4c\)	4e/)	4cc\)	4r	4r	4r	4r	4r	4r	4c\)	4r	4r	4r	4cc\)	4r	4r
4r	4r	4r	4r	4r	4r	4r	4r	4r	4r	4r	4r	4r	4r	4r	4r	4r	4r
=:|!@	=:|!@	=:|!@	=:|!@	=:|!@	=:|!@	=:|!@	=:|!@	=:|!@	=:|!@	=:|!@	=:|!@	=:|!@	=:|!@	=:|!@	=:|!@	=:|!@	=:|!@
*>F	*>F	*>F	*>F	*>F	*>F	*>F	*>F	*>F	*>F	*>F	*>F	*>F	*>F	*>F	*>F	*>F	*>F
4r	4r	4g'\	4b'\	4dd'\	4r	4r	4r	4r	4r	4r	4r	4r	4r	4r	4r	4r	4r
=101	=101	=101	=101	=101	=101	=101	=101	=101	=101	=101	=101	=101	=101	=101	=101	=101	=101
2.r	2.r	(4g\	(4b\	(4dd\	2.r	2.r	2.r	2.r	2.r	2.r	2.r	2.r	2.r	2.r	2.r	2.r	2.r
.	.	4f#\)	4cc\)	4ee-\)	.	.	.	.	.	.	.	.	.	.	.	.	.
.	.	4f#'\	4cc'\	4ee-'\	.	.	.	.	.	.	.	.	.	.	.	.	.
=102	=102	=102	=102	=102	=102	=102	=102	=102	=102	=102	=102	=102	=102	=102	=102	=102	=102
4r	4r	(2f#\	(2cc\	(2ee-\	2.r	2.r	2.r	2.r	2.r	2.r	2.r	2.r	2.r	2.r	2.r	2.r	2.r
4r	4r	.	.	.	.	.	.	.	.	.	.	.	.	.	.	.	.
4F#\	4F#\	4F#/)	4e-/)	4cc\)	.	.	.	.	.	.	.	.	.	.	.	.	.
=103	=103	=103	=103	=103	=103	=103	=103	=103	=103	=103	=103	=103	=103	=103	=103	=103	=103
(4F#\	(4F#\	(4F#/	(4e-/	(4cc\	2.r	2.r	2.r	2.r	2.r	2.r	2.r	2.r	2.r	2.r	2.r	2.r	2.r
4G\)	4G\)	4G/)	4d/)	4b\)	.	.	.	.	.	.	.	.	.	.	.	.	.
4G'\	4G'\	4G'/	4d'/	4b'\	.	.	.	.	.	.	.	.	.	.	.	.	.
=104	=104	=104	=104	=104	=104	=104	=104	=104	=104	=104	=104	=104	=104	=104	=104	=104	=104
[2.G\	[2.G\	2G/	2d/	2b\	2.r	2.r	2.r	2.r	2.r	2.r	2.r	2.r	2.r	2.r	2.r	2.r	2.r
.	.	4B/	4d/	4gg\	.	.	.	.	.	.	.	.	.	.	.	.	.
=105	=105	=105	=105	=105	=105	=105	=105	=105	=105	=105	=105	=105	=105	=105	=105	=105	=105
2.G_\	2.G_\	(2c\	(2e-/	(4ff#\	2.r	2.r	2.r	2.r	2.r	2.r	2.r	2.r	2.r	2.r	2.r	2.r	2.r
.	.	.	.	4ee-\	.	.	.	.	.	.	.	.	.	.	.	.	.
.	.	4e-\	4f#/	4cc\	.	.	.	.	.	.	.	.	.	.	.	.	.
=106	=106	=106	=106	=106	=106	=106	=106	=106	=106	=106	=106	=106	=106	=106	=106	=106	=106
2.G_\	2.G_\	2d\)	2g/)	4b\	2.r	2.r	2.r	2.r	2.r	2.r	2.r	2.r	2.r	2.r	2.r	2.r	2.r
.	.	.	.	4g/)	.	.	.	.	.	.	.	.	.	.	.	.	.
.	.	4B/	4d/	4gg\	.	.	.	.	.	.	.	.	.	.	.	.	.
=107	=107	=107	=107	=107	=107	=107	=107	=107	=107	=107	=107	=107	=107	=107	=107	=107	=107
2.G_\	2.G_\	(2c\	(2e-/	(4ff#\	2.r	2.r	2.r	2.r	2.r	2.r	2.r	2.r	2.r	2.r	2.r	2.r	2.r
.	.	.	.	4ee-\	.	.	.	.	.	.	.	.	.	.	.	.	.
.	.	4e-\	4f#/	4cc\	.	.	.	.	.	.	.	.	.	.	.	.	.
=108	=108	=108	=108	=108	=108	=108	=108	=108	=108	=108	=108	=108	=108	=108	=108	=108	=108
2G\]	2G\]	2d\)	2g/)	4b\	2.r	2.r	2.r	2.r	2.r	2.r	2.r	4r	4r	2.r	2.r	2.r	2.r
.	.	.	.	4g/)	.	.	.	.	.	.	.	4r	4r	.	.	.	.
4G\	4G\	4g\	4g/	4g/	.	.	.	.	.	.	.	4bn\	4dd\	.	.	.	.
=109	=109	=109	=109	=109	=109	=109	=109	=109	=109	=109	=109	=109	=109	=109	=109	=109	=109
(4F#\	(4F#\	(4f#\	(4f#/	(4f#/	2.r	2.r	2.r	2.r	2.r	2.r	2.r	(2.cc\	(2.ee-\	2.r	2.r	2.r	2.r
4E-\	4E-\	4e-\	4e-/	4e-/	.	.	.	.	.	.	.	.	.	.	.	.	.
4C/	4C/	4c\	4c/	4c/	.	.	.	.	.	.	.	.	.	.	.	.	.
=110	=110	=110	=110	=110	=110	=110	=110	=110	=110	=110	=110	=110	=110	=110	=110	=110	=110
4BB/	4BB/	4B/	4B/	4B/	2.r	2.r	2.r	2.r	2.r	2.r	2.r	2.bn\)	2.dd\)	2.r	2.r	2.r	2.r
4GG/)	4GG/)	4G/)	4G/)	4G/)	.	.	.	.	.	.	.	.	.	.	.	.	.
4r	4r	4r	4r	4f/	.	.	.	.	.	.	.	.	.	.	.	.	.
=111	=111	=111	=111	=111	=111	=111	=111	=111	=111	=111	=111	=111	=111	=111	=111	=111	=111
4GG/	4GG/	4G/	4B/	(4d/	2.r	2.r	2.r	2.r	2.r	2.r	2.r	[2.dd\	[2.ff\	2.r	2.r	2.r	2.r
4r	4r	4r	4r	4B/)	.	.	.	.	.	.	.	.	.	.	.	.	.
4r	4r	4r	4r	4a-/	.	.	.	.	.	.	.	.	.	.	.	.	.
=112	=112	=112	=112	=112	=112	=112	=112	=112	=112	=112	=112	=112	=112	=112	=112	=112	=112
4GG/	4GG/	4d\	4B/	(4f/	2.r	2.r	2.r	2.r	2.r	2.r	2.r	2.dd_\	2.ff_\	2.r	2.r	2.r	2.r
4r	4r	4r	4r	4d/)	.	.	.	.	.	.	.	.	.	.	.	.	.
4r	4r	4r	4r	4dd\	.	.	.	.	.	.	.	.	.	.	.	.	.
=113	=113	=113	=113	=113	=113	=113	=113	=113	=113	=113	=113	=113	=113	=113	=113	=113	=113
4GG/	4GG/	4d\	4f/ 4d/	(4b\	2.r	2.r	2.r	2.r	2.r	2.r	2.r	2.dd_\	2.ff_\	2.r	2.r	2.r	2.r
4r	4r	4r	4r	4g/)	.	.	.	.	.	.	.	.	.	.	.	.	.
4r	4r	4r	4r	4ff\	.	.	.	.	.	.	.	.	.	.	.	.	.
=114	=114	=114	=114	=114	=114	=114	=114	=114	=114	=114	=114	=114	=114	=114	=114	=114	=114
4GG/	4GG/	4B/	4f/ 4d/	(4dd\	2.r	2.r	2.r	2.r	2.r	2.r	2.r	2dd\]	2ff\]	2.r	2.r	2.r	2.r
4r	4r	4r	4r	4b\)	.	.	.	.	.	.	.	.	.	.	.	.	.
4r	4r	4r	4r	4aa-\	.	.	.	.	.	.	.	4a-\	4aa-\	.	.	.	.
=115	=115	=115	=115	=115	=115	=115	=115	=115	=115	=115	=115	=115	=115	=115	=115	=115	=115
4GG/	4GG/	4B/	4f/ 4d/	(4ff\	2.r	2.r	2.r	2.r	2.r	2.r	2.r	(4f/	(4ff\	2.r	2.r	2.r	2.r
4r	4r	4r	4r	4dd\)	.	.	.	.	.	.	.	4d/)	4dd\)	.	.	.	.
4r	4r	4r	4r	4aa-\	.	.	.	.	.	.	.	4a-\	4aa-\	.	.	.	.
=116	=116	=116	=116	=116	=116	=116	=116	=116	=116	=116	=116	=116	=116	=116	=116	=116	=116
2.r	2.r	2.r	2.r	(4ff\	2.r	2.r	2.r	2.r	2.r	2.r	2.r	(4f/	(4ff\	2.r	2.r	2.r	2.r
.	.	.	.	4dd\)	.	.	.	.	.	.	.	4d/)	4dd\)	.	.	.	.
.	.	.	.	4aa-\	.	.	.	.	.	.	.	4a-\	4aa-\	.	.	.	.
=117	=117	=117	=117	=117	=117	=117	=117	=117	=117	=117	=117	=117	=117	=117	=117	=117	=117
2.r	2.r	2.r	2.r	(4ff\	2.r	2.r	2.r	2.r	2.r	2.r	2.r	(4f/	(4ff\	2.r	2.r	2.r	2.r
.	.	.	.	4dd\)	.	.	.	.	.	.	.	4d/)	4dd\)	.	.	.	.
.	.	.	.	4aa-\	.	.	.	.	.	.	.	4a-\	4aa-\	.	.	.	.
=118	=118	=118	=118	=118	=118	=118	=118	=118	=118	=118	=118	=118	=118	=118	=118	=118	=118
4r	4r	4r	4r	(4ff\	4r	4r	4r	4r	4r	4r	4r	(4f/	(4ff\	4r	4r	4r	4r
4r	4r	4r	4r	4dd\)	4r	4r	4r	4r	4r	4r	4r	4d/)	4dd\)	4r	4r	4r	4r
!! Men. D. C.
!! attaca subito il Menuet
=|!@	=|!@	=|!@	=|!@	=|!@	=|!@	=|!@	=|!@	=|!@	=|!@	=|!@	=|!@	=|!@	=|!@	=|!@	=|!@	=|!@	=|!@
*-	*-	*-	*-	*-	*-	*-	*-	*-	*-	*-	*-	*-	*-	*-	*-	*-	*-
!!!CDT: 1732/3/31/-1809/5/31/
!!!OCO: Johann Peter Salomon
!!!OCY: Oesterreich
!!!ODT: 1793///
!!!MPD: 1794/2/10/
!!!OPC: London
!!!PPR: Ernst Eulenburg, Ltd.
!!!PPP: London
!!!PDT: 1880///
!!!AGN: symphony
!!!AST: classical, orchestral
!!!AMT: simple triple
!!!YOR: Ernst Praetorius, editor
!!!AIN: cbass cello clars cor fagot flt oboe timpa tromp viola violn
!!!EEV: 1.0
!!!RDT: 1995 April 5
!!!YER: 1996 August 10
!!!YEN: United States of America
!!!EFL: 3/4
!!!ENC: Frances Bennion
!!!EED: W.B. Hewlett
!!!VTS: 3967431185
